assets/img/braze_icons/user-02.svg

<svg fill="none" height="24" viewBox="0 0 24 24" width="24" xmlns="http://www.w3.org/2000/svg"><g clip-rule="evenodd" fill="#801ed7" fill-rule="evenodd"><path d="m3.41812 18.3031c1.97296-2.6111 5.08073-4.3031 8.58188-4.3031 3.5011 0 6.6089 1.692 8.5818 4.3031.0089.0118.0179.0237.0269.0355.1696.2244.3515.4649.4815.697.1573.2809.274.6058.2667 1.001-.0058.3176-.102.615-.2189.8498s-.2961.4908-.546.687c-.3334.2616-.6963.3542-1.0187.3928-.2828.0339-.618.0339-.955.0338-.0152 0-.0304 0-.0456 0h-13.14549c-.01519 0-.03038 0-.04556 0-.337.0001-.67219.0001-.95503-.0338-.32239-.0386-.6853-.1312-1.01862-.3928-.24995-.1962-.42917-.4522-.54605-.687s-.21312-.5322-.21893-.8498c-.00723-.3952.10938-.7201.26672-1.001.12998-.2321.31188-.4726.48151-.697.009-.0118.01795-.0237.02687-.0355z"/><path d="m6.49997 7.5c0-3.03757 2.46244-5.5 5.50003-5.5 3.0375 0 5.5 2.46243 5.5 5.5 0 3.0376-2.4625 5.5-5.5 5.5-3.03759 0-5.50003-2.4624-5.50003-5.5z"/></g></svg>

<svg width="24" height="24" viewBox="0 0 24 24" fill="none" xmlns="http://www.w3.org/2000/svg">
<path fill-rule="evenodd" clip-rule="evenodd" d="M3.41812 18.3031C5.39108 15.692 8.49885 14 12 14C15.5011 14 18.6089 15.692 20.5818 18.3031C20.5907 18.3149 20.5997 18.3268 20.6087 18.3386C20.7783 18.563 20.9602 18.8035 21.0902 19.0356C21.2475 19.3165 21.3642 19.6414 21.3569 20.0366C21.3511 20.3542 21.2549 20.6516 21.138 20.8864C21.0211 21.1212 20.8419 21.3772 20.592 21.5734C20.2586 21.835 19.8957 21.9276 19.5733 21.9662C19.2905 22.0001 18.9553 22.0001 18.6183 22C18.6031 22 18.5879 22 18.5727 22H5.42721C5.41202 22 5.39683 22 5.38165 22C5.04465 22.0001 4.70946 22.0001 4.42662 21.9662C4.10423 21.9276 3.74132 21.835 3.408 21.5734C3.15805 21.3772 2.97883 21.1212 2.86195 20.8864C2.74507 20.6516 2.64883 20.3542 2.64302 20.0366C2.63579 19.6414 2.7524 19.3165 2.90974 19.0356C3.03972 18.8035 3.22162 18.563 3.39125 18.3386C3.40025 18.3268 3.4092 18.3149 3.41812 18.3031Z" fill="#801ED7"/>
<path fill-rule="evenodd" clip-rule="evenodd" d="M6.49997 7.5C6.49997 4.46243 8.96241 2 12 2C15.0375 2 17.5 4.46243 17.5 7.5C17.5 10.5376 15.0375 13 12 13C8.96241 13 6.49997 10.5376 6.49997 7.5Z" fill="#801ED7"/>
</svg>
